; generated by Slic3r Prusa Edition 1.41.2+ on 2019-02-01 at 13:32:46

; 

; external perimeters extrusion width = 0.45mm
; perimeters extrusion width = 0.45mm
; infill extrusion width = 0.45mm
; solid infill extrusion width = 0.45mm
; top infill extrusion width = 0.45mm
; first layer extrusion width = 0.42mm

M201 X9000 Y9000 Z500 E10000 ; sets maximum accelerations, mm/sec^2
M203 X500 Y500 Z12 E120 ; sets maximum feedrates, mm/sec
M204 P2000 R1500 T2000 ; sets acceleration (P, T) and retract acceleration (R), mm/sec^2
M205 X10.00 Y10.00 Z0.20 E2.50 ; sets the jerk limits, mm/sec
M205 S0 T0 ; sets the minimum extruding and travel feed rate, mm/sec
M107
M115 U3.1.0 ; tell printer latest fw version
M83  ; extruder relative mode
M204 S2000 T1500 ; MK2 firmware only supports the old M204 format
M104 S215 ; set extruder temp
M140 S60 ; set bed temp
M190 S60 ; wait for bed temp
M109 S215 ; wait for extruder temp
G28 W ; home all without mesh bed level
G80 ; mesh bed leveling
G1 Y-3.0 F1000.0 ; go outside print area
G92 E0.0
G1 X60.0 E9.0  F1000.0 ; intro line
G1 X100.0 E12.5  F1000.0 ; intro line
G92 E0.0
M900 K30; Filament gcode
G21 ; set units to millimeters
G90 ; use absolute coordinates
M83 ; use relative distances for extrusion
;BEFORE_LAYER_CHANGE
G92 E0.0
;0.2


G1 E-0.80000 F2100.00000
G1 Z0.600 F10800.000
;AFTER_LAYER_CHANGE
;0.2
G1 X112.614 Y94.057
G1 Z0.200
G1 E0.80000 F2100.00000
M204 S800
G1 F900
G1 X113.080 Y93.299 E0.02790
G1 X113.457 Y92.950 E0.01610
G1 X113.900 Y92.682 E0.01623
G1 X114.387 Y92.509 E0.01623
G1 X114.899 Y92.436 E0.01623
G1 X135.004 Y92.434 E0.63036
G1 X135.936 Y92.611 E0.02973
G1 X136.742 Y93.117 E0.02985
G1 X137.309 Y93.882 E0.02985
G1 X137.558 Y94.797 E0.02973
G1 X137.565 Y115.075 E0.63582
G1 X137.386 Y115.943 E0.02778
G1 X136.920 Y116.701 E0.02790
G1 X136.527 Y117.061 E0.01672
G1 X136.065 Y117.334 E0.01684
G1 X135.559 Y117.504 E0.01672
G1 X135.025 Y117.565 E0.01684
G1 X114.925 Y117.565 E0.63024
G1 X114.057 Y117.386 E0.02778
G1 X113.299 Y116.920 E0.02790
G1 X112.939 Y116.527 E0.01672
G1 X112.666 Y116.065 E0.01684
G1 X112.496 Y115.559 E0.01672
G1 X112.435 Y115.025 E0.01684
G1 X112.435 Y94.925 E0.63024
G1 X112.602 Y94.116 E0.02590
M204 S1000
G1 F8640
G1 X113.080 Y93.299 E-0.21853
G1 X113.457 Y92.950 E-0.11859
G1 X113.900 Y92.682 E-0.11949
G1 X114.387 Y92.509 E-0.11949
G1 X114.899 Y92.436 E-0.11949
G1 X115.178 Y92.436 E-0.06440
G1 E-0.04000 F2100.00000
G1 Z0.800 F10800.000
G1 X114.074 Y93.017
G1 Z0.200
G1 E0.80000 F2100.00000
M204 S800
G1 F900
G1 X114.925 Y92.813 E0.02743
G1 X135.004 Y92.811 E0.62956
G1 X135.803 Y92.964 E0.02552
G1 X136.494 Y93.401 E0.02563
G1 X136.975 Y94.057 E0.02552
G1 X137.183 Y94.848 E0.02563
G1 X137.188 Y115.055 E0.63357
G1 X137.033 Y115.810 E0.02417
G1 X136.626 Y116.465 E0.02417
G1 X135.899 Y116.995 E0.02822
G1 X135.017 Y117.188 E0.02833
G1 X114.942 Y117.188 E0.62945
G1 X114.187 Y117.032 E0.02417
G1 X113.535 Y116.626 E0.02405
G1 X113.005 Y115.899 E0.02822
G1 X112.812 Y115.017 E0.02833
G1 X112.812 Y94.942 E0.62945
G1 X112.968 Y94.187 E0.02417
G1 X113.374 Y93.535 E0.02405
G1 X114.026 Y93.053 E0.02544
M204 S1000
; PURGING FINISHED
G1 F8640
G1 X114.925 Y92.813 E-0.21483
G1 X117.286 Y92.813 E-0.54517
G1 E-0.04000 F2100.00000
G1 Z0.800 F10800.000
G1 X115.587 Y95.587
G1 Z0.200
G1 E0.80000 F2100.00000
M204 S800
G1 F900
G1 X134.413 Y95.587 E0.59027
G1 X134.413 Y114.413 E0.59027
G1 X115.587 Y114.413 E0.59027
G1 X115.587 Y95.647 E0.58839
M204 S1000
G1 X115.210 Y95.210 F10800.000
M204 S800
G1 F900
G1 X134.790 Y95.210 E0.61392
G1 X134.790 Y114.790 E0.61392
G1 X115.210 Y114.790 E0.61392
G1 X115.210 Y95.270 E0.61204
M204 S1000
G1 X115.596 Y95.314 F10800.000
G1 F8640
G1 X118.501 Y95.260 E-0.76000
G1 E-0.04000 F2100.00000
G1 Z0.800 F10800.000
G1 X115.700 Y113.527
G1 Z0.200
G1 E0.80000 F2100.00000
M204 S800
G1 F900
G1 X116.303 Y114.130 E0.02708
G1 X116.843 Y114.130 E0.01716
G1 X115.870 Y113.157 E0.04372
G1 X115.870 Y112.617 E0.01716
G1 X117.383 Y114.130 E0.06799
G1 X117.924 Y114.130 E0.01716
G1 X115.870 Y112.076 E0.09226
G1 X115.870 Y111.536 E0.01716
G1 X118.464 Y114.130 E0.11652
G1 X119.004 Y114.130 E0.01716
G1 X115.870 Y110.996 E0.14079
G1 X115.870 Y110.456 E0.01716
G1 X119.544 Y114.130 E0.16505
G1 X120.085 Y114.130 E0.01716
G1 X115.870 Y109.915 E0.18932
G1 X115.870 Y109.375 E0.01716
G1 X120.625 Y114.130 E0.21358
G1 X121.165 Y114.130 E0.01716
G1 X115.870 Y108.835 E0.23785
G1 X115.870 Y108.295 E0.01716
G1 X121.705 Y114.130 E0.26212
G1 X122.245 Y114.130 E0.01716
G1 X115.870 Y107.755 E0.28638
G1 X115.870 Y107.214 E0.01716
G1 X122.786 Y114.130 E0.31065
G1 X123.326 Y114.130 E0.01716
G1 X115.870 Y106.674 E0.33491
G1 X115.870 Y106.134 E0.01716
G1 X123.866 Y114.130 E0.35918
G1 X124.406 Y114.130 E0.01716
G1 X115.870 Y105.594 E0.38344
G1 X115.870 Y105.054 E0.01716
G1 X124.946 Y114.130 E0.40771
G1 X125.487 Y114.130 E0.01716
G1 X115.870 Y104.513 E0.43198
G1 X115.870 Y103.973 E0.01716
G1 X126.027 Y114.130 E0.45624
G1 X126.567 Y114.130 E0.01716
G1 X115.870 Y103.433 E0.48051
G1 X115.870 Y102.893 E0.01716
G1 X127.107 Y114.130 E0.50477
G1 X127.648 Y114.130 E0.01716
G1 X115.870 Y102.352 E0.52904
G1 X115.870 Y101.812 E0.01716
G1 X128.188 Y114.130 E0.55330
G1 X128.728 Y114.130 E0.01716
G1 X115.870 Y101.272 E0.57757
G1 X115.870 Y100.732 E0.01716
G1 X129.268 Y114.130 E0.60184
G1 X129.808 Y114.130 E0.01716
G1 X115.870 Y100.192 E0.62610
G1 X115.870 Y99.651 E0.01716
G1 X130.349 Y114.130 E0.65037
G1 X130.889 Y114.130 E0.01716
G1 X115.870 Y99.111 E0.67463
G1 X115.870 Y98.571 E0.01716
G1 X131.429 Y114.130 E0.69890
G1 X131.969 Y114.130 E0.01716
G1 X115.870 Y98.031 E0.72316
G1 X115.870 Y97.491 E0.01716
G1 X132.509 Y114.130 E0.74743
G1 X133.050 Y114.130 E0.01716
G1 X115.870 Y96.950 E0.77170
G1 X115.870 Y96.410 E0.01716
G1 X133.590 Y114.130 E0.79596
G1 X134.130 Y114.130 E0.01716
G1 X115.870 Y95.870 E0.82023
G1 X116.410 Y95.870 E0.01716
G1 X134.130 Y113.590 E0.79597
G1 X134.130 Y113.050 E0.01716
G1 X116.950 Y95.870 E0.77170
G1 X117.490 Y95.870 E0.01716
G1 X134.130 Y112.510 E0.74744
G1 X134.130 Y111.969 E0.01716
G1 X118.031 Y95.870 E0.72317
G1 X118.571 Y95.870 E0.01716
G1 X134.130 Y111.429 E0.69890
G1 X134.130 Y110.889 E0.01716
G1 X119.111 Y95.870 E0.67464
G1 X119.651 Y95.870 E0.01716
G1 X134.130 Y110.349 E0.65037
G1 X134.130 Y109.808 E0.01716
G1 X120.192 Y95.870 E0.62611
G1 X120.732 Y95.870 E0.01716
G1 X134.130 Y109.268 E0.60184
G1 X134.130 Y108.728 E0.01716
G1 X121.272 Y95.870 E0.57758
G1 X121.812 Y95.870 E0.01716
G1 X134.130 Y108.188 E0.55331
G1 X134.130 Y107.648 E0.01716
G1 X122.352 Y95.870 E0.52904
G1 X122.893 Y95.870 E0.01716
G1 X134.130 Y107.107 E0.50478
G1 X134.130 Y106.567 E0.01716
G1 X123.433 Y95.870 E0.48051
G1 X123.973 Y95.870 E0.01716
G1 X134.130 Y106.027 E0.45625
G1 X134.130 Y105.487 E0.01716
G1 X124.513 Y95.870 E0.43198
G1 X125.053 Y95.870 E0.01716
G1 X134.130 Y104.947 E0.40772
G1 X134.130 Y104.406 E0.01716
G1 X125.594 Y95.870 E0.38345
G1 X126.134 Y95.870 E0.01716
G1 X134.130 Y103.866 E0.35918
G1 X134.130 Y103.326 E0.01716
G1 X126.674 Y95.870 E0.33492
G1 X127.214 Y95.870 E0.01716
G1 X134.130 Y102.786 E0.31065
G1 X134.130 Y102.246 E0.01716
G1 X127.754 Y95.870 E0.28639
G1 X128.295 Y95.870 E0.01716
G1 X134.130 Y101.705 E0.26212
G1 X134.130 Y101.165 E0.01716
G1 X128.835 Y95.870 E0.23786
G1 X129.375 Y95.870 E0.01716
G1 X134.130 Y100.625 E0.21359
G1 X134.130 Y100.085 E0.01716
G1 X129.915 Y95.870 E0.18932
G1 X130.456 Y95.870 E0.01716
G1 X134.130 Y99.544 E0.16506
G1 X134.130 Y99.004 E0.01716
G1 X130.996 Y95.870 E0.14079
G1 X131.536 Y95.870 E0.01716
G1 X134.130 Y98.464 E0.11653
G1 X134.130 Y97.924 E0.01716
G1 X132.076 Y95.870 E0.09226
G1 X132.616 Y95.870 E0.01716
G1 X134.130 Y97.384 E0.06800
G1 X134.130 Y96.843 E0.01716
G1 X133.157 Y95.870 E0.04373
G1 X133.697 Y95.870 E0.01716
G1 X134.300 Y96.473 E0.02709
M204 S1000
M106 S255
;BEFORE_LAYER_CHANGE
G92 E0.0
;0.35


G1 F8640
G1 X133.697 Y95.870 E-0.19691
G1 X133.157 Y95.870 E-0.12474
G1 X134.130 Y96.843 E-0.31790
G1 X134.130 Y97.365 E-0.12046
G1 E-0.04000 F2100.00000
G1 Z0.800 F10800.000
;AFTER_LAYER_CHANGE
;0.35
M104 S210 ; set temperature
G1 X137.309 Y93.882
G1 Z0.350
G1 E0.80000 F2100.00000
G1 F3000
G1 X137.558 Y94.797 E0.02293
G1 X137.565 Y115.075 E0.49043
G1 X137.386 Y115.943 E0.02143
G1 X136.920 Y116.701 E0.02152
G1 X136.527 Y117.061 E0.01290
G1 X136.065 Y117.334 E0.01299
G1 X135.559 Y117.504 E0.01290
G1 X135.025 Y117.565 E0.01299
G1 X114.925 Y117.565 E0.48613
G1 X114.057 Y117.386 E0.02143
G1 X113.299 Y116.920 E0.02152
G1 X112.939 Y116.527 E0.01290
G1 X112.666 Y116.065 E0.01299
G1 X112.496 Y115.559 E0.01290
G1 X112.435 Y115.025 E0.01299
G1 X112.435 Y94.925 E0.48613
G1 X112.614 Y94.057 E0.02143
G1 X113.080 Y93.299 E0.02152
G1 X113.457 Y92.950 E0.01242
G1 X113.900 Y92.682 E0.01252
G1 X114.387 Y92.509 E0.01252
G1 X114.899 Y92.436 E0.01252
G1 X135.004 Y92.434 E0.48623
G1 X135.936 Y92.611 E0.02293
G1 X136.742 Y93.117 E0.02303
G1 X137.273 Y93.833 E0.02158
; PURGING FINISHED
G1 F8640
G1 X137.558 Y94.797 E-0.23190
G1 X137.558 Y97.084 E-0.52810
G1 E-0.04000 F2100.00000
G1 Z0.950 F10800.000
G1 X134.357 Y95.643
G1 Z0.350
G1 E0.80000 F2100.00000
M204 S800
G1 F3000
G1 X134.357 Y114.357 E0.48762
G1 X115.643 Y114.357 E0.48762
G1 X115.643 Y95.643 E0.48762
G1 X134.297 Y95.643 E0.48605
M204 S1000
G1 X134.775 Y95.225 F10800.000
M204 S800
G1 F2400
G1 X134.775 Y114.775 E0.50939
G1 X115.225 Y114.775 E0.50939
G1 X115.225 Y95.225 E0.50939
G1 X134.715 Y95.225 E0.50783
M204 S1000
G1 X134.671 Y95.611 F10800.000
G1 F8640
G1 X134.725 Y98.516 E-0.76000
G1 E-0.04000 F2100.00000
G1 Z0.950 F10800.000
G1 X115.768 Y96.622
G1 Z0.350
G1 E0.80000 F2100.00000
M204 S2000
G1 F3000
G1 X116.434 Y95.956 E0.02478
G1 X117.031 Y95.956 E0.01571
G1 X115.956 Y97.031 E0.04000
G1 X115.956 Y97.628 E0.01571
G1 X117.628 Y95.956 E0.06223
G1 X118.225 Y95.956 E0.01571
G1 X115.956 Y98.225 E0.08445
G1 X115.956 Y98.822 E0.01571
G1 X118.822 Y95.956 E0.10667
G1 X119.419 Y95.956 E0.01571
G1 X115.956 Y99.419 E0.12889
G1 X115.956 Y100.015 E0.01571
G1 X120.015 Y95.956 E0.15112
G1 X120.612 Y95.956 E0.01571
G1 X115.956 Y100.612 E0.17334
G1 X115.956 Y101.209 E0.01571
G1 X121.209 Y95.956 E0.19556
G1 X121.806 Y95.956 E0.01571
G1 X115.956 Y101.806 E0.21779
G1 X115.956 Y102.403 E0.01571
G1 X122.403 Y95.956 E0.24001
G1 X123.000 Y95.956 E0.01571
G1 X115.956 Y103.000 E0.26223
G1 X115.956 Y103.597 E0.01571
G1 X123.597 Y95.956 E0.28446
G1 X124.194 Y95.956 E0.01571
G1 X115.956 Y104.194 E0.30668
G1 X115.956 Y104.791 E0.01571
G1 X124.791 Y95.956 E0.32890
G1 X125.388 Y95.956 E0.01571
G1 X115.956 Y105.388 E0.35112
G1 X115.956 Y105.985 E0.01571
G1 X125.985 Y95.956 E0.37335
G1 X126.582 Y95.956 E0.01571
G1 X115.956 Y106.582 E0.39557
G1 X115.956 Y107.179 E0.01571
G1 X127.179 Y95.956 E0.41779
G1 X127.776 Y95.956 E0.01571
G1 X115.956 Y107.776 E0.44002
G1 X115.956 Y108.373 E0.01571
G1 X128.373 Y95.956 E0.46224
G1 X128.970 Y95.956 E0.01571
G1 X115.956 Y108.970 E0.48446
G1 X115.956 Y109.567 E0.01571
G1 X129.567 Y95.956 E0.50669
G1 X130.164 Y95.956 E0.01571
G1 X115.956 Y110.164 E0.52891
G1 X115.956 Y110.761 E0.01571
G1 X130.761 Y95.956 E0.55113
G1 X131.358 Y95.956 E0.01571
G1 X115.956 Y111.358 E0.57335
G1 X115.956 Y111.954 E0.01571
G1 X131.954 Y95.956 E0.59558
G1 X132.551 Y95.956 E0.01571
G1 X115.956 Y112.551 E0.61780
G1 X115.956 Y113.148 E0.01571
G1 X133.148 Y95.956 E0.64002
G1 X133.745 Y95.956 E0.01571
G1 X115.956 Y113.745 E0.66225
G1 X115.956 Y114.044 E0.00786
G1 X116.255 Y114.044 E0.00786
G1 X134.044 Y96.255 E0.66225
G1 X134.044 Y96.852 E0.01571
G1 X116.852 Y114.044 E0.64003
G1 X117.448 Y114.044 E0.01571
G1 X134.044 Y97.448 E0.61780
G1 X134.044 Y98.045 E0.01571
G1 X118.045 Y114.044 E0.59558
G1 X118.642 Y114.044 E0.01571
G1 X134.044 Y98.642 E0.57336
G1 X134.044 Y99.239 E0.01571
G1 X119.239 Y114.044 E0.55113
G1 X119.836 Y114.044 E0.01571
G1 X134.044 Y99.836 E0.52891
G1 X134.044 Y100.433 E0.01571
G1 X120.433 Y114.044 E0.50669
G1 X121.030 Y114.044 E0.01571
G1 X134.044 Y101.030 E0.48447
G1 X134.044 Y101.627 E0.01571
G1 X121.627 Y114.044 E0.46224
G1 X122.224 Y114.044 E0.01571
G1 X134.044 Y102.224 E0.44002
G1 X134.044 Y102.821 E0.01571
G1 X122.821 Y114.044 E0.41780
G1 X123.418 Y114.044 E0.01571
G1 X134.044 Y103.418 E0.39557
G1 X134.044 Y104.015 E0.01571
G1 X124.015 Y114.044 E0.37335
G1 X124.612 Y114.044 E0.01571
G1 X134.044 Y104.612 E0.35113
G1 X134.044 Y105.209 E0.01571
G1 X125.209 Y114.044 E0.32890
G1 X125.806 Y114.044 E0.01571
G1 X134.044 Y105.806 E0.30668
G1 X134.044 Y106.403 E0.01571
G1 X126.403 Y114.044 E0.28446
G1 X127.000 Y114.044 E0.01571
G1 X134.044 Y107.000 E0.26224
G1 X134.044 Y107.597 E0.01571
G1 X127.597 Y114.044 E0.24001
G1 X128.194 Y114.044 E0.01571
G1 X134.044 Y108.194 E0.21779
G1 X134.044 Y108.791 E0.01571
G1 X128.791 Y114.044 E0.19557
G1 X129.388 Y114.044 E0.01571
G1 X134.044 Y109.388 E0.17334
G1 X134.044 Y109.984 E0.01571
G1 X129.984 Y114.044 E0.15112
G1 X130.581 Y114.044 E0.01571
G1 X134.044 Y110.581 E0.12890
G1 X134.044 Y111.178 E0.01571
G1 X131.178 Y114.044 E0.10668
G1 X131.775 Y114.044 E0.01571
G1 X134.044 Y111.775 E0.08445
G1 X134.044 Y112.372 E0.01571
G1 X132.372 Y114.044 E0.06223
G1 X132.969 Y114.044 E0.01571
G1 X134.044 Y112.969 E0.04001
G1 X134.044 Y113.566 E0.01571
G1 X133.378 Y114.232 E0.02478
M204 S1000
;BEFORE_LAYER_CHANGE
G92 E0.0
;0.5


G1 F8640
G1 X134.044 Y113.566 E-0.21738
G1 X134.044 Y112.969 E-0.13784
G1 X132.969 Y114.044 E-0.35092
G1 X132.736 Y114.044 E-0.05386
G1 E-0.04000 F2100.00000
G1 Z0.950 F10800.000
;AFTER_LAYER_CHANGE
;0.5
G1 X137.386 Y115.943
G1 Z0.500
G1 E0.80000 F2100.00000
G1 F3000
G1 X136.920 Y116.701 E0.02152
G1 X136.527 Y117.061 E0.01290
G1 X136.065 Y117.334 E0.01299
G1 X135.559 Y117.504 E0.01290
G1 X135.025 Y117.565 E0.01299
G1 X114.925 Y117.565 E0.48613
G1 X114.057 Y117.386 E0.02143
G1 X113.299 Y116.920 E0.02152
G1 X112.939 Y116.527 E0.01290
G1 X112.666 Y116.065 E0.01299
G1 X112.496 Y115.559 E0.01290
G1 X112.435 Y115.025 E0.01299
G1 X112.435 Y94.925 E0.48613
G1 X112.614 Y94.057 E0.02143
G1 X113.080 Y93.299 E0.02152
G1 X113.457 Y92.950 E0.01242
G1 X113.900 Y92.682 E0.01252
G1 X114.387 Y92.509 E0.01252
G1 X114.899 Y92.436 E0.01252
G1 X135.004 Y92.434 E0.48623
G1 X135.936 Y92.611 E0.02293
G1 X136.742 Y93.117 E0.02303
G1 X137.309 Y93.882 E0.02303
G1 X137.558 Y94.797 E0.02293
G1 X137.565 Y115.075 E0.49043
G1 X137.398 Y115.884 E0.01997
; PURGING FINISHED
G1 F8640
G1 X136.920 Y116.701 E-0.21853
G1 X136.527 Y117.061 E-0.12313
G1 X136.065 Y117.334 E-0.12404
G1 X135.559 Y117.504 E-0.12313
G1 X135.025 Y117.565 E-0.12404
G1 X134.821 Y117.565 E-0.04713
G1 E-0.04000 F2100.00000
G1 Z1.100 F10800.000
G1 X134.357 Y114.357
G1 Z0.500
G1 E0.80000 F2100.00000
M204 S800
G1 F3000
G1 X115.643 Y114.357 E0.48762
G1 X115.643 Y95.643 E0.48762
G1 X134.357 Y95.643 E0.48762
G1 X134.357 Y114.297 E0.48605
M204 S1000
G1 X134.775 Y114.775 F10800.000
M204 S800
G1 F2400
G1 X115.225 Y114.775 E0.50939
G1 X115.225 Y95.225 E0.50939
G1 X134.775 Y95.225 E0.50939
G1 X134.775 Y114.715 E0.50783
M204 S1000
G1 X134.389 Y114.671 F10800.000
G1 F8640
G1 X131.484 Y114.725 E-0.76000
G1 E-0.04000 F2100.00000
G1 Z1.100 F10800.000
G1 X134.232 Y96.622
G1 Z0.500
G1 E0.80000 F2100.00000
M204 S2000
G1 F3000
G1 X133.566 Y95.956 E0.02478
G1 X132.969 Y95.956 E0.01571
G1 X134.044 Y97.031 E0.04001
G1 X134.044 Y97.628 E0.01571
G1 X132.372 Y95.956 E0.06223
G1 X131.775 Y95.956 E0.01571
G1 X134.044 Y98.225 E0.08445
G1 X134.044 Y98.822 E0.01571
G1 X131.178 Y95.956 E0.10668
G1 X130.581 Y95.956 E0.01571
G1 X134.044 Y99.419 E0.12890
G1 X134.044 Y100.016 E0.01571
G1 X129.984 Y95.956 E0.15112
G1 X129.388 Y95.956 E0.01571
G1 X134.044 Y100.612 E0.17334
G1 X134.044 Y101.209 E0.01571
G1 X128.791 Y95.956 E0.19557
G1 X128.194 Y95.956 E0.01571
G1 X134.044 Y101.806 E0.21779
G1 X134.044 Y102.403 E0.01571
G1 X127.597 Y95.956 E0.24001
G1 X127.000 Y95.956 E0.01571
G1 X134.044 Y103.000 E0.26224
G1 X134.044 Y103.597 E0.01571
G1 X126.403 Y95.956 E0.28446
G1 X125.806 Y95.956 E0.01571
G1 X134.044 Y104.194 E0.30668
G1 X134.044 Y104.791 E0.01571
G1 X125.209 Y95.956 E0.32890
G1 X124.612 Y95.956 E0.01571
G1 X134.044 Y105.388 E0.35113
G1 X134.044 Y105.985 E0.01571
